Icons/com_twitter_android.svg

<svg viewBox="0 0 48 48" xmlns:xlink="http://www.w3.org/1999/xlink">
 <defs>
  <linearGradient id="0">
   <stop stop-opacity="0"/>
   <stop offset="1"/>
  </linearGradient>
  <linearGradient xlink:href="#0" id="1" gradientUnits="userSpaceOnUse" gradientTransform="translate(4e-7,-48)" y1="47" x2="0" y2="1"/>
  <clipPath id="2">
   <g transform="translate(0,-1004.3622)">
    <rect rx="4" y="1005.36" x="1" height="46" width="46" fill="#1890d0"/>
   </g>
  </clipPath>
  <clipPath id="3">
   <g transform="translate(0,-1004.3622)">
    <rect rx="4" y="1005.36" x="1" height="46" width="46" fill="#1890d0"/>
   </g>
  </clipPath>
 </defs>
 <g>
  <g transform="translate(0,-1004.3622)">
   <path d="m 5,1006.3622 c -2.216,0 -4,1.784 -4,4 l 0,37.25 c 0,2.216 1.784,4 4,4 l 38,0 c 2.216,0 4,-1.784 4,-4 l 0,-37.25 c 0,-2.216 -1.784,-4 -4,-4 l -38,0 z m -4,41.5 0,0.5 c 0,2.216 1.784,4 4,4 l 38,0 c 2.216,0 4,-1.784 4,-4 l 0,-0.5 c 0,2.216 -1.784,4 -4,4 l -38,0 c -2.216,0 -4,-1.784 -4,-4 z" opacity="0.02"/>
   <path d="m 1,1047.6122 0,0.25 c 0,2.216 1.784,4 4,4 l 38,0 c 2.216,0 4,-1.784 4,-4 l 0,-0.25 c 0,2.216 -1.784,4 -4,4 l -38,0 c -2.216,0 -4,-1.784 -4,-4 z" opacity="0.05"/>
   <rect width="46" height="46" x="1" y="1005.61" rx="4" opacity="0.1"/>
  </g>
 </g>
 <g>
  <g transform="translate(0,-1004.3622)">
   <rect rx="4" y="1005.36" x="1" height="46" width="46" fill="#01b9ff"/>
  </g>
 </g>
 <g>
  <rect transform="scale(1,-1)" width="46" height="46" x="1" y="-46.998" rx="4" opacity="0.1" fill="url(#1)"/>
 </g>
 <g>
  <g clip-path="url(#2)">
   <g opacity="0.1">
    <g>
     <path d="M 27.289062 13.257812 C 24.941406 14.132812 23.457031 16.386719 23.625 18.851562 L 23.679688 19.804688 L 22.742188 19.6875 C 19.324219 19.242188 16.335938 17.726562 13.800781 15.183594 L 12.558594 13.917969 L 12.242188 14.851562 C 11.5625 16.929688 11.996094 19.125 13.40625 20.601562 C 14.15625 21.414062 13.988281 21.53125 12.691406 21.046875 C 12.242188 20.890625 11.84375 20.773438 11.808594 20.832031 C 11.675781 20.96875 12.125 22.738281 12.484375 23.433594 C 12.972656 24.40625 13.96875 25.359375 15.058594 25.921875 L 15.976562 26.367188 L 14.890625 26.386719 C 13.835938 26.386719 13.800781 26.40625 13.910156 26.8125 C 14.289062 28.078125 15.773438 29.417969 17.425781 30 L 18.589844 30.410156 L 17.574219 31.027344 C 16.074219 31.921875 14.308594 32.425781 12.542969 32.464844 C 11.695312 32.484375 11 32.5625 11 32.621094 C 11 32.816406 13.292969 33.902344 14.625 34.328125 C 18.625 35.59375 23.378906 35.046875 26.949219 32.894531 C 29.484375 31.359375 32.023438 28.308594 33.207031 25.359375 C 33.84375 23.785156 34.484375 20.910156 34.484375 19.53125 C 34.484375 18.640625 34.539062 18.523438 35.59375 17.453125 C 36.210938 16.832031 36.792969 16.152344 36.90625 15.960938 C 37.09375 15.589844 37.074219 15.589844 36.117188 15.921875 C 34.519531 16.5 34.292969 16.425781 35.085938 15.550781 C 35.667969 14.929688 36.359375 13.804688 36.359375 13.472656 C 36.359375 13.414062 36.078125 13.511719 35.761719 13.6875 C 35.421875 13.878906 34.671875 14.171875 34.109375 14.347656 L 33.09375 14.675781 L 32.171875 14.035156 C 31.664062 13.6875 30.953125 13.296875 30.574219 13.179688 C 29.617188 12.910156 28.152344 12.949219 27.289062 13.257812 Z M 27.289062 13.257812 "/>
    </g>
   </g>
  </g>
 </g>
 <g>
  <g clip-path="url(#3)">
   <g transform="translate(0,-1)">
    <g>
     <path d="M 27.289062 13.257812 C 24.941406 14.132812 23.457031 16.386719 23.625 18.851562 L 23.679688 19.804688 L 22.742188 19.6875 C 19.324219 19.242188 16.335938 17.726562 13.800781 15.183594 L 12.558594 13.917969 L 12.242188 14.851562 C 11.5625 16.929688 11.996094 19.125 13.40625 20.601562 C 14.15625 21.414062 13.988281 21.53125 12.691406 21.046875 C 12.242188 20.890625 11.84375 20.773438 11.808594 20.832031 C 11.675781 20.96875 12.125 22.738281 12.484375 23.433594 C 12.972656 24.40625 13.96875 25.359375 15.058594 25.921875 L 15.976562 26.367188 L 14.890625 26.386719 C 13.835938 26.386719 13.800781 26.40625 13.910156 26.8125 C 14.289062 28.078125 15.773438 29.417969 17.425781 30 L 18.589844 30.410156 L 17.574219 31.027344 C 16.074219 31.921875 14.308594 32.425781 12.542969 32.464844 C 11.695312 32.484375 11 32.5625 11 32.621094 C 11 32.816406 13.292969 33.902344 14.625 34.328125 C 18.625 35.59375 23.378906 35.046875 26.949219 32.894531 C 29.484375 31.359375 32.023438 28.308594 33.207031 25.359375 C 33.84375 23.785156 34.484375 20.910156 34.484375 19.53125 C 34.484375 18.640625 34.539062 18.523438 35.59375 17.453125 C 36.210938 16.832031 36.792969 16.152344 36.90625 15.960938 C 37.09375 15.589844 37.074219 15.589844 36.117188 15.921875 C 34.519531 16.5 34.292969 16.425781 35.085938 15.550781 C 35.667969 14.929688 36.359375 13.804688 36.359375 13.472656 C 36.359375 13.414062 36.078125 13.511719 35.761719 13.6875 C 35.421875 13.878906 34.671875 14.171875 34.109375 14.347656 L 33.09375 14.675781 L 32.171875 14.035156 C 31.664062 13.6875 30.953125 13.296875 30.574219 13.179688 C 29.617188 12.910156 28.152344 12.949219 27.289062 13.257812 Z M 27.289062 13.257812 " fill="#f9f9f9"/>
    </g>
   </g>
  </g>
 </g>
 <g>
  <g transform="translate(0,-1004.3622)">
   <path d="m 1,1043.3622 0,4 c 0,2.216 1.784,4 4,4 l 38,0 c 2.216,0 4,-1.784 4,-4 l 0,-4 c 0,2.216 -1.784,4 -4,4 l -38,0 c -2.216,0 -4,-1.784 -4,-4 z" opacity="0.1"/>
  </g>
 </g>
</svg>

<svg viewBox="0 0 48 48"><defs><linearGradient id="linearGradient3764" x1="1" x2="47" gradientUnits="userSpaceOnUse" gradientTransform="translate(-48.000001,0.00221467)"><stop stop-color="#00acec" stop-opacity="1"/><stop offset="1" stop-color="#01b9ff" stop-opacity="1"/></linearGradient><clipPath id="clipPath-135541332"><g transform="translate(0,-1004.3622)"><rect rx="4" y="1005.36" x="1" height="46" width="46" fill="#1890d0"/></g></clipPath><clipPath id="clipPath-148439062"><g transform="translate(0,-1004.3622)"><rect rx="4" y="1005.36" x="1" height="46" width="46" fill="#1890d0"/></g></clipPath></defs><g><path d="m 1 43 l 0 0.25 c 0 2.216 1.784 4 4 4 l 38 0 c 2.216 0 4 -1.784 4 -4 l 0 -0.25 c 0 2.216 -1.784 4 -4 4 l -38 0 c -2.216 0 -4 -1.784 -4 -4 z m 0 0.5 l 0 0.5 c 0 2.216 1.784 4 4 4 l 38 0 c 2.216 0 4 -1.784 4 -4 l 0 -0.5 c 0 2.216 -1.784 4 -4 4 l -38 0 c -2.216 0 -4 -1.784 -4 -4 z" opacity="0.02"/><path d="m 1 43.25 l 0 0.25 c 0 2.216 1.784 4 4 4 l 38 0 c 2.216 0 4 -1.784 4 -4 l 0 -0.25 c 0 2.216 -1.784 4 -4 4 l -38 0 c -2.216 0 -4 -1.784 -4 -4 z" opacity="0.05"/><path d="m 1 43 l 0 0.25 c 0 2.216 1.784 4 4 4 l 38 0 c 2.216 0 4 -1.784 4 -4 l 0 -0.25 c 0 2.216 -1.784 4 -4 4 l -38 0 c -2.216 0 -4 -1.784 -4 -4 z" opacity="0.1"/></g><g><rect width="46" height="46" x="-47" y="1" rx="4" transform="matrix(0,-1,1,0,0,0)" fill="url(#linearGradient3764)" fill-opacity="1"/></g><g><g clip-path="url(#clipPath-135541332)"><g opacity="0.1"><!-- color: #01b9ff --><g><path d="m 27.29 13.258 c -2.348 0.875 -3.832 3.129 -3.664 5.594 l 0.055 0.953 l -0.938 -0.117 c -3.418 -0.445 -6.406 -1.961 -8.941 -4.504 l -1.242 -1.266 l -0.316 0.934 c -0.68 2.078 -0.246 4.273 1.164 5.75 c 0.75 0.813 0.582 0.93 -0.715 0.445 c -0.449 -0.156 -0.848 -0.273 -0.883 -0.215 c -0.133 0.137 0.316 1.906 0.676 2.602 c 0.488 0.973 1.484 1.926 2.574 2.488 l 0.918 0.445 l -1.086 0.02 c -1.055 0 -1.09 0.02 -0.98 0.426 c 0.379 1.266 1.863 2.605 3.516 3.188 l 1.164 0.41 l -1.016 0.617 c -1.5 0.895 -3.266 1.398 -5.03 1.438 c -0.848 0.02 -1.543 0.098 -1.543 0.156 c 0 0.195 2.293 1.281 3.625 1.707 c 4 1.266 8.754 0.719 12.324 -1.434 c 2.535 -1.535 5.074 -4.586 6.258 -7.535 c 0.637 -1.574 1.277 -4.449 1.277 -5.828 c 0 -0.891 0.055 -1.01 1.109 -2.078 c 0.617 -0.621 1.199 -1.301 1.313 -1.492 c 0.188 -0.371 0.168 -0.371 -0.789 -0.039 c -1.598 0.578 -1.824 0.504 -1.031 -0.371 c 0.582 -0.621 1.273 -1.746 1.273 -2.078 c 0 -0.059 -0.281 0.039 -0.598 0.215 c -0.34 0.191 -1.09 0.484 -1.652 0.66 l -1.016 0.328 l -0.922 -0.641 c -0.508 -0.348 -1.219 -0.738 -1.598 -0.855 c -0.957 -0.27 -2.422 -0.23 -3.285 0.078 m 0 0" fill="#000"/></g></g></g></g><g><g clip-path="url(#clipPath-148439062)"><g transform="translate(0,-1)"><!-- color: #01b9ff --><g><path d="m 27.29 13.258 c -2.348 0.875 -3.832 3.129 -3.664 5.594 l 0.055 0.953 l -0.938 -0.117 c -3.418 -0.445 -6.406 -1.961 -8.941 -4.504 l -1.242 -1.266 l -0.316 0.934 c -0.68 2.078 -0.246 4.273 1.164 5.75 c 0.75 0.813 0.582 0.93 -0.715 0.445 c -0.449 -0.156 -0.848 -0.273 -0.883 -0.215 c -0.133 0.137 0.316 1.906 0.676 2.602 c 0.488 0.973 1.484 1.926 2.574 2.488 l 0.918 0.445 l -1.086 0.02 c -1.055 0 -1.09 0.02 -0.98 0.426 c 0.379 1.266 1.863 2.605 3.516 3.188 l 1.164 0.41 l -1.016 0.617 c -1.5 0.895 -3.266 1.398 -5.03 1.438 c -0.848 0.02 -1.543 0.098 -1.543 0.156 c 0 0.195 2.293 1.281 3.625 1.707 c 4 1.266 8.754 0.719 12.324 -1.434 c 2.535 -1.535 5.074 -4.586 6.258 -7.535 c 0.637 -1.574 1.277 -4.449 1.277 -5.828 c 0 -0.891 0.055 -1.01 1.109 -2.078 c 0.617 -0.621 1.199 -1.301 1.313 -1.492 c 0.188 -0.371 0.168 -0.371 -0.789 -0.039 c -1.598 0.578 -1.824 0.504 -1.031 -0.371 c 0.582 -0.621 1.273 -1.746 1.273 -2.078 c 0 -0.059 -0.281 0.039 -0.598 0.215 c -0.34 0.191 -1.09 0.484 -1.652 0.66 l -1.016 0.328 l -0.922 -0.641 c -0.508 -0.348 -1.219 -0.738 -1.598 -0.855 c -0.957 -0.27 -2.422 -0.23 -3.285 0.078 m 0 0" fill="#f9f9f9"/></g></g></g></g><g><g transform="translate(0,-1004.3622)"><path d="m 1 1043.36 0 4 c 0 2.216 1.784 4 4 4 l 38 0 c 2.216 0 4 -1.784 4 -4 l 0 -4 c 0 2.216 -1.784 4 -4 4 l -38 0 c -2.216 0 -4 -1.784 -4 -4 z" opacity="0.1"/></g></g></svg>
